X:1
T:Psalm No. 1. JWDM.51
L:1/4
Q:1/2=80
M:2/2
I:linebreak $
K:G
V:1 treble 
V:1
 z2 B2 | B2 B2 | G2 G2 | B2 A2 | B4 || z2 B2 | A2 G2 | G2 F2 | G4 || z2 G2 | A2 G2 | F2 E2 | %12
 F2 G2 | A4 || z2 d2 | d2 c2 |$ B2 B2 | B4 |] %18
